img/raw/icons/Pinterest.svg

<?xml version="1.0" encoding="UTF-8"?>
<svg xmlns="http://www.w3.org/2000/svg" xmlns:xlink="http://www.w3.org/1999/xlink" width="500pt" height="500pt" viewBox="0 0 500 500" version="1.1">
<g id="surface1">
<path style=" stroke:none;fill-rule:nonzero;fill:#5B5B5B;fill-opacity:1;" d="M 250 20 C 123.179688 20 20 123.171875 20 250 C 20 376.828125 123.179688 480 250 480 C 376.820313 480 480 376.828125 480 250 C 480 123.171875 376.820313 20 250 20 Z M 275.421875 327.191406 C 242.449219 327.191406 230.261719 305.808594 230.261719 305.808594 C 230.261719 305.808594 224.378906 328.898438 220.050781 345.308594 C 215.71875 361.71875 214.980469 361.960938 210.78125 371.21875 C 206.070313 381.609375 194.519531 397.960938 191.121094 402.988281 C 188.410156 407 185.050781 410.339844 183.078125 409.949219 C 181.109375 409.570313 181.109375 407.5 180.628906 403.171875 C 179.96875 397.21875 178.050781 377.230469 178.96875 363.710938 C 179.570313 354.910156 182.640625 340 182.640625 340 L 204.890625 248.921875 C 191.210938 220.851563 202.429688 177 233.601563 177 C 255.710938 177 261.5 197.011719 254.730469 221.058594 C 251.71875 231.789063 242.269531 261.878906 241.980469 263.300781 C 241.691406 264.71875 240.988281 267.71875 241.148438 270.679688 C 241.148438 279.460938 247.859375 297.398438 271.101563 297.398438 C 308.539063 297.398438 326.269531 242.050781 326.269531 205.03125 C 326.269531 175.261719 307.351563 139.300781 252.109375 139.300781 C 195.828125 139.300781 164.789063 182.128906 164.789063 221.441406 C 164.789063 243.488281 173.488281 252.351563 177.519531 257.210938 C 180.800781 261.160156 179.140625 264.949219 179.140625 264.949219 L 175.589844 279.199219 C 174.28125 283.910156 170.070313 286.328125 164.160156 282.878906 C 158.238281 279.480469 130 267.519531 130 216.488281 C 130 164.199219 179.261719 110 255.710938 110 C 316.398438 110 370 148.171875 370 210.011719 C 370 286.351563 322.320313 327.191406 275.421875 327.191406 Z "/>
</g>
</svg>

<?xml version="1.0" encoding="utf-8"?>
<!-- Generator: Adobe Illustrator 23.0.2, SVG Export Plug-In . SVG Version: 6.00 Build 0)  -->
<svg version="1.1" id="Layer_1" xmlns="http://www.w3.org/2000/svg" xmlns:xlink="http://www.w3.org/1999/xlink" x="0px" y="0px"
	 viewBox="0 0 500 500" style="enable-background:new 0 0 500 500;" xml:space="preserve">
<style type="text/css">
	.st0{fill:#E60023;}
</style>
<g id="surface1">
	<path class="st0" d="M250,20C123.2,20,20,123.2,20,250s103.2,230,230,230s230-103.2,230-230S376.8,20,250,20z M275.4,327.2
		c-33,0-45.2-21.4-45.2-21.4s-5.9,23.1-10.2,39.5c-4.3,16.4-5.1,16.7-9.3,25.9c-4.7,10.4-16.3,26.7-19.7,31.8c-2.7,4-6.1,7.4-8,7
		c-2-0.4-2-2.4-2.4-6.8c-0.7-6-2.6-25.9-1.7-39.5c0.6-8.8,3.7-23.7,3.7-23.7l22.3-91.1c-13.7-28.1-2.5-71.9,28.7-71.9
		c22.1,0,27.9,20,21.1,44.1c-3,10.7-12.5,40.8-12.8,42.2c-0.3,1.4-1,4.4-0.8,7.4c0,8.8,6.7,26.7,30,26.7c37.4,0,55.2-55.3,55.2-92.4
		c0-29.8-18.9-65.7-74.2-65.7c-56.3,0-87.3,42.8-87.3,82.1c0,22,8.7,30.9,12.7,35.8c3.3,3.9,1.6,7.7,1.6,7.7l-3.6,14.3
		c-1.3,4.7-5.5,7.1-11.4,3.7c-5.9-3.4-34.2-15.4-34.2-66.4c0-52.3,49.3-106.5,125.7-106.5c60.7,0,114.3,38.2,114.3,100
		C370,286.4,322.3,327.2,275.4,327.2z"/>
</g>
</svg>
